Breeze Round Light/actions/22/go-home.svg

<svg xmlns="http://www.w3.org/2000/svg" viewBox="0 0 22 22">
  <defs id="defs3051">
    <style type="text/css" id="current-color-scheme">
      .ColorScheme-Text {
        color:#232629;
      }
      </style>
  </defs>
 <path 
    style="fill:currentColor;fill-opacity:1;stroke:none" 
	d="m11 3l-.707031.707031-7.292969 7.292969.707031.707031.292969-.292969v7.585938h1 5 3 5v-1-6.585938l.292969.292969.707031-.707031-3-3v-3h-3l-1.292969-1.292969-.707031-.707031m0 1.414063l6 5.999999v7.585938h-4v-5h-3-1v5h-4v-7.585938l6-5.999999"
    class="ColorScheme-Text"
    />  
</svg>

<svg xmlns="http://www.w3.org/2000/svg" viewBox="0 0 22 22">
  <defs id="defs3051">
<style type="text/css" id="current-color-scheme">.ColorScheme-Text {color:#fcfcfc;}</style>
  </defs>
 <path 
    style="fill:currentColor;fill-opacity:1;stroke:none" 
	d="M 11,3 10.292969,3.707031 3,11 3.707031,11.707031 4,11.414062 C 4,11.414062 4,13 4,16 c 0,3 3,3 3,3 h 3 3 2 c 0,0 3,0 3,-3 0,-3 0,-4.585938 0,-4.585938 L 18.292969,11.707031 19,11 16,8 V 5 H 13 L 11.707031,3.707031 11,3 m 0,1.414063 6,5.999999 c 0,0 0,3.585938 0,5.585938 0,2 -2,2 -2,2 l -2,0 V 13 H 10 9 v 5 H 7 c 0,0 -2,0 -2,-2 0,-2 0,-5.585938 0,-5.585938 l 6,-5.999999"
    class="ColorScheme-Text"
    />  
</svg>
